X: 10263
M: 2/4
L: 1/16
K: Eb
{d}e2e2 efge | B4 G2{d}e2 | edcB =ABcd | e2{f}g2B2B2 |\
{d}e2e2 efg=e | f6 e2 | defd cdec | B2{^c}d2B2 :|
|: B2 |\
{=e}f2f2 fagf | fede B2B2 | f=efe fgaf | fede B2B2 |\
e2B2 edcd | e2B2 defg | e2e2 fgaf | e2{f}g2e2 :|


